X:997
T:Cat's Miaow, The
O:england
R:double jig
M:6/8
L:1/8
Q:120
K:D
G|FAd f2f|afe dBA|B2B BAF|BAG FGE|
FAd fef|afe dBA|Bde fdB|AFE D2:|
e|fdB AFE|DEF def|gfg afd|c/2d/2ed cBA|
fdB AFE|DEF def|1 gfg afd|edc d2:|2 gfg agf|edc d2|
|:G|FAd a2a|agf agf|Ace g2g|gfe gfe|
fdf gfg|agf e/2f/2ge|faf gec|edc d2:|


